elements/app-hax/lib/assets/images/ButtonInteractive.svg

<svg width="397" height="170" viewBox="0 0 397 170" fill="none" xmlns="http://www.w3.org/2000/svg">
<path d="M301.5 131.5V129H304V126.5H306.5V124H309V121.5H306.5V119H304V116.5H301.5V114H306.5V116.5H309V119H311.5V121.5H314V124H311.5V126.5H309V129H306.5V131.5H301.5Z" fill="black"/>
<path d="M303 130.25H264.5" stroke="black" stroke-opacity="0.25" stroke-width="2.5"/>
<path opacity="0.25" d="M303.5 115.25H265" stroke="black" stroke-width="2.5"/>
<path d="M307.5 120.25H269" stroke="black" stroke-opacity="0.25" stroke-width="2.5"/>
<path d="M307.5 125.25H269" stroke="black" stroke-opacity="0.25" stroke-width="2.5"/>
<path d="M335.25 143.75V137.5H347.75V106.25H335.25V100H360.25V143.75H335.25Z" fill="black"/>
<path d="M56 103.1H338.5" stroke="black" stroke-width="6.25"/>
<path d="M56 140.62H338.5" stroke="black" stroke-width="6.25"/>
<path d="M32.5 143.75V100H57.5V106.25H45V137.5H57.5V143.75H32.5Z" fill="black"/>
<path d="M96.5 49.5V47H99V44.5H101.5V42H104V39.5H101.5V37H99V34.5H96.5V32H101.5V34.5H104V37H106.5V39.5H109V42H106.5V44.5H104V47H101.5V49.5H96.5Z" fill="black"/>
<path d="M125 49.5V32H140V34.5H142.5V42H140V44.5H130V49.5H125ZM130 42H137.5V34.5H130V42ZM147.5 49.5V47H145V39.5H147.5V37H160V39.5H162.5V47H160V49.5H147.5ZM150 47H157.5V39.5H150V47ZM172.5 39.5H175V42H172.5V49.5H167.5V37H172.5V39.5ZM182.5 37V39.5H175V37H182.5ZM192.5 49.5V39.5H187.5V37H192.5V32H197.5V37H202.5V39.5H197.5V49.5H192.5ZM212.5 49.5V39.5H207.5V37H212.5V34.5H215V32H222.5V34.5H217.5V37H222.5V39.5H217.5V49.5H212.5ZM227.5 49.5V47H225V39.5H227.5V37H240V39.5H242.5V47H240V49.5H227.5ZM230 47H237.5V39.5H230V47ZM247.5 49.5V47H252.5V34.5H250V32H257.5V47H262.5V49.5H247.5ZM272.5 34.5V32H277.5V34.5H272.5ZM267.5 49.5V47H272.5V39.5H270V37H277.5V47H282.5V49.5H267.5ZM287.5 49.5V47H285V39.5H287.5V37H300V39.5H302.5V47H300V49.5H287.5ZM290 47H297.5V39.5H290V47Z" fill="black"/>
<path d="M335.25 63.75V57.5H347.75V26.25H335.25V20H360.25V63.75H335.25Z" fill="black"/>
<path d="M56 26.225H338.5V19.975H56V26.225ZM56 63.745H338.5V57.495H56V63.745Z" fill="black"/>
<path d="M32.5 63.75V20H57.5V26.25H45V57.5H57.5V63.75H32.5Z" fill="black"/>
<rect x="0.5" y="0.5" width="398" height="169" rx="4.5" stroke="#7B61FF" stroke-dasharray="10 5"/>
</svg>

<svg xmlns="http://www.w3.org/2000/svg" fill="none" width="397" height="170" viewBox="0 0 397 170"><path d="M301.5 131.5V129h2.5v-2.5h2.5V124h2.5v-2.5h-2.5V119H304v-2.5h-2.5V114h5v2.5h2.5v2.5h2.5v2.5h2.5v2.5h-2.5v2.5H309v2.5h-2.5v2.5h-5Z" fill="#000"/><path d="M303 130.25h-38.5" stroke="#000" stroke-opacity=".25" stroke-width="2.5"/><path d="M303.5 115.25H265" stroke="#000" stroke-width="2.5" opacity=".25"/><path d="M307.5 120.25H269m38.5 5H269" stroke="#000" stroke-opacity=".25" stroke-width="2.5"/><path d="M335.25 143.75v-6.25h12.5v-31.25h-12.5V100h25v43.75h-25Z" fill="#000"/><path d="M56 103.1h282.5M56 140.62h282.5" stroke="#000" stroke-width="6.25"/><path d="M32.5 143.75V100h25v6.25H45v31.25h12.5v6.25h-25Zm64-94.25V47H99v-2.5h2.5V42h2.5v-2.5h-2.5V37H99v-2.5h-2.5V32h5v2.5h2.5V37h2.5v2.5h2.5V42h-2.5v2.5H104V47h-2.5v2.5h-5Zm28.5 0V32h15v2.5h2.5V42H140v2.5h-10v5h-5Zm5-7.5h7.5v-7.5H130V42Zm17.5 7.5V47H145v-7.5h2.5V37H160v2.5h2.5V47H160v2.5h-12.5ZM150 47h7.5v-7.5H150V47Zm22.5-7.5h2.5V42h-2.5v7.5h-5V37h5v2.5Zm10-2.5v2.5H175V37h7.5Zm10 12.5v-10h-5V37h5v-5h5v5h5v2.5h-5v10h-5Zm20 0v-10h-5V37h5v-2.5h2.5V32h7.5v2.5h-5V37h5v2.5h-5v10h-5Zm15 0V47H225v-7.5h2.5V37H240v2.5h2.5V47H240v2.5h-12.5ZM230 47h7.5v-7.5H230V47Zm17.5 2.5V47h5V34.5H250V32h7.5v15h5v2.5h-15Zm25-15V32h5v2.5h-5Zm-5 15V47h5v-7.5H270V37h7.5v10h5v2.5h-15Zm20 0V47H285v-7.5h2.5V37H300v2.5h2.5V47H300v2.5h-12.5ZM290 47h7.5v-7.5H290V47Zm45.25 16.75V57.5h12.5V26.25h-12.5V20h25v43.75h-25Z" fill="#000"/><path d="M56 26.225h282.5v-6.25H56v6.25Zm0 37.52h282.5v-6.25H56v6.25Z" fill="#000"/><path d="M32.5 63.75V20h25v6.25H45V57.5h12.5v6.25h-25Z" fill="#000"/><rect width="398" height="169" x=".5" y=".5" stroke="#7B61FF" stroke-dasharray="10 5" rx="4.5"/></svg>
